X:1
T:The Alhambra -- Reel
R:reel
N:165
B:Ryan's Mammoth Collection
Z:Contributed by Ray Davies,  ray:davies99.freeserve.co.uk
M:C|
L:1/8
K:D
vdceA ((3Bcd) AF | DFAF GEEc | dcdA ((3Bcd) AF | dfeg fdd2 |
 dceA ((3Bcd) AF | DFAF GEEc | dcdA ((3Bcd) AF | dfeg fdd2 |]
dfaf bgaf | dfaf geef | dfaf bgaf | gfeg fdd2 |
dfaf bgaf | dfaf geeg | fdec ((3Bcd) AF | DFAd fdd2 | |]
